public/veilenext/header-icon.svg

<svg fill="none" height="72" viewBox="0 0 72 72" width="72" xmlns="http://www.w3.org/2000/svg" xmlns:xlink="http://www.w3.org/1999/xlink"><clipPath id="a"><path d="m0 0h72v72h-72z"/></clipPath><g clip-path="url(#a)"><path d="m37.2705 70.4048c-2.5294-13.6884-6.624-26.9963-12.1924-39.627" stroke="#000" stroke-linecap="round" stroke-linejoin="round" stroke-width="2"/><path d="m35.6391 29.634s4.446 24.4843-2.1313 37.4532" stroke="#000" stroke-linecap="round" stroke-linejoin="round" stroke-width="2"/><path d="m47.4084 29.634s-5.6787 25.9717-15.5275 39.9249" stroke="#000" stroke-linecap="round" stroke-linejoin="round" stroke-width="2"/><path d="m31.716 57.3713s-3.2818 3.3399 6.3027 4.5817c6.8384.886 4.8633-3.1765 4.8633-3.1765" stroke="#000" stroke-linecap="round" stroke-linejoin="round" stroke-width="2.1049"/><path d="m34.598 69.3517c-1.1758-.001-2.1283-1.0156-2.1273-2.2662.0003-.3745.0879-.7431.2551-1.0728 6.9184-12.9304 1.2441-39.715 1.2015-39.9517-.2228-1.2279.5326-2.4154 1.6871-2.6524 1.1546-.2369 2.2712.5664 2.494 1.7945.1871 1.0315 5.2252 29.4349-1.6339 42.959-.372.7335-1.0928 1.1906-1.8765 1.1896z" fill="#5c9e31"/><path d="m31.5617 71.8308c.4791.3128 1.104.1808 1.4343-.3032 9.7113-14.5256 16.807-44.7035 17.0384-45.7619.2664-1.2182-.4462-2.4354-1.5915-2.7188-1.1454-.2833-2.2899.4746-2.5563 1.6927-.0539.2491-6.234 30.1454-16.4681 44.1309-.3514.5004-.2549 1.209.2156 1.5829.032.0253.0652.0488.0995.0701z" fill="#b1cc33"/><path d="m39.4022 71.0945c.5492-.1149.9068-.6817.7988-1.2658-.0017-.0091-.0035-.0183-.0054-.0274-1.0587-4.9988-5.9384-26.2861-14.2859-45.4139-.4984-1.1363-1.7685-1.6276-2.8369-1.0974-.1063.0527-.2083.1148-.3051.1853-.8576.6739-1.1417 1.902-.6762 2.9222 3.5633 8.2616 5.7784 12.7006 8.7114 21.5631 3.0106 9.0969 4.4961 18.3445 5.465 22.7474.1276.5695.658.9277 1.1969.808z" fill="#b1cc33"/><path d="m42.1909 25.8619s6.4269 4.4351 10.8368-1.586c4.4099-6.021-3.179-14.73095-3.179-14.73095s-4.8907-5.27835-7.7276-2.42622c0 0 5.7884 10.48127 3.1218 14.99277-2.665 4.5083-3.052 3.7504-3.052 3.7504z" fill="#b399c8"/><path d="m50.9242 25.735c2.4098 2.0868 5.9541 1.7008 7.9162-.8623.1324-.1729.2555-.3534.3689-.5408 3.8095-5.2759.3513-12.446.3513-12.446s-1.8407-4.80633-4.5534-5.53453c-2.7127-.72821-5.5267 4.36323-5.5267 4.36323s6.9797 8.2582 1.4437 15.0204z" fill="#b399c8"/><path d="m50.0667 9.7764s-2.7091-2.96773-5.3226-3.44992c.4244-1.85957 1.3771-3.53494 2.7287-4.79809.7851-.33784 1.6767-.23866 2.3792.26458.9838.84267 1.8504 1.82946 2.5736 2.93094l.8026 1.81802c-1.2751.80315-2.3574 1.91041-3.1615 3.23447z" fill="#8967aa"/><path d="m26.756 22.111c-2.6667-4.5114 3.1218-14.9927 3.1218-14.9927-2.837-2.85213-7.7277 2.42622-7.7277 2.42622s-7.5886 8.70998-3.179 14.73098c4.4097 6.0211 10.8368 1.5859 10.8368 1.5859s-.3866.7585-3.0519-3.7504z" fill="#ffa7c0"/><path d="m22.5162 10.7146s-2.814-5.09144-5.5267-4.36323c-2.7127.7282-4.5536 5.53453-4.5536 5.53453s-3.45798 7.1702.3513 12.446c1.6813 2.7797 5.163 3.5835 7.7766 1.7954.1763-.1206.3461-.2516.5085-.3923-5.5358-6.7622 1.4439-15.0204 1.4439-15.0204z" fill="#ffa7c0"/><path d="m18.7695 6.54193.8027-1.81802c.7232-1.10148 1.5897-2.08827 2.5736-2.93094.7024-.50324 1.5941-.60242 2.3792-.26458 1.3517 1.26303 2.3045 2.9384 2.7288 4.79809-2.6137.48219-5.3225 3.44992-5.3225 3.44992-.8042-1.32406-1.8866-2.43132-3.1618-3.23447z" fill="#e67a94"/><path d="m35.8721 10.1116c-1.7485 1.7186-3.9243 6.2739-4.0143 8.0748-.1538 3.076-.0571 3.773 1.5918 6.7147.1898.3387.3832.3075.9702.7965.8009.6671-3.002 1.4514-3.002 1.4514-2.4194.1817-3.9787-2.607-4.8733-5.0295-2.1464-5.8121 2.6783-15.75964 5.0978-15.94079 0 0 1.316.16847 4.6001 3.48309z" fill="#f4aa41"/><path d="m40.8926 8.7142c2.1126.67296 5.7947 9.743 2.8097 14.3898-.8871 1.4379-2.3483 2.36-3.96 2.4991-.9682.1355-1.9519.0676-2.8955-.2001-2.1596-.4755-3.6087-2.8488-3.8381-5.1816-.5506-5.597 5.7244-11.98271 7.8839-11.5072z" fill="#f4aa41"/><path d="m33.8164 6.24416c1.1461-1.9566 2.7421-3.38935 3.5893-3.28576z" fill="#e27022"/><path d="m35.9 10.7787s-3.3862-3.06-3.6046-3.15929c-.2662-.12159.7146-3.80405 3.9539-5.89119 3.2393-2.087136 5.5186 5.86855 5.5186 5.86855l-1.6028.2433c-.2587.03838-.5059.13778-.7239.29085-.9817.69017-3.5412 2.64778-3.5412 2.64778z" fill="#e27022"/><g stroke-linecap="round" stroke-linejoin="round"><path d="m37.2705 70.4048c-2.5294-13.6884-6.624-26.9963-12.1924-39.627" stroke="#000" stroke-width="2"/><path d="m35.6371 29.634s4.4461 24.4843-2.1312 37.4532" stroke="#000" stroke-width="2"/><path d="m45.8117 29.634c-.9613 3.5676-8.1948 31.7984-13.9308 39.925" stroke="#000" stroke-width="2"/><path d="m31.716 57.3713s-3.2818 3.3399 6.3027 4.5817c6.8384.886 4.8633-3.1765 4.8633-3.1765" stroke="#fcea2b" stroke-width="2.1049"/><path d="m40.9592 7.79977c2.3039.73387 6.3193 10.62513 3.0641 15.69243-.9674 1.5681-2.5609 2.5737-4.3186 2.7253-1.0559.1479-2.1288.0737-3.1577-.2182-2.3551-.5185-3.9355-3.1067-4.1856-5.6507-.6005-6.1037 6.2426-13.06736 8.5978-12.54883z" stroke="#000" stroke-width="2"/><path d="m34.3066 5.25536c.9973-1.70254 2.386-2.94917 3.1232-2.85905" stroke="#000" stroke-width="2"/><path d="m37.4297 2.3963c.5839.12669 1.4387 1.23406 2.0753 2.68911" stroke="#000" stroke-width="2"/><path d="m31.0707 26.051c-2.3995.1718-4.0462-1.8896-4.9287-4.2691-2.1169-5.7091 2.7207-14.36889 5.1204-14.54075" stroke="#000" stroke-width="2"/><path d="m31.0762 7.22699c.9207.18137 1.7564.68903 2.3711 1.44033" stroke="#000" stroke-width="2"/><path d="m46.6607 26.2797c.8632.0488 1.7281-.0458 2.5637-.2803 2.3551-.5185 3.9354-3.1068 4.1856-5.6507.5078-5.1615-4.3075-10.93804-7.2303-12.28486" stroke="#000" stroke-width="2"/><path d="m51.465 5.25536c-.9969-1.70254-2.386-2.94917-3.1232-2.85905" stroke="#000" stroke-width="2"/><path d="m48.3414 2.3963c-.5839.12669-1.4387 1.23406-2.0758 2.68911" stroke="#000" stroke-width="2"/><path d="m54.6994 26.051c2.3996.1718 4.0463-1.8896 4.9287-4.2691 2.1169-5.7091-2.7207-14.36889-5.1203-14.54075" stroke="#000" stroke-width="2"/><path d="m54.6953 7.22699c-.9207.18137-1.7564.68903-2.3711 1.44033" stroke="#000" stroke-width="2"/><path d="m25.8221 8.06384c-2.9228 1.34727-7.738 7.12336-7.2303 12.28486.2502 2.5439 1.831 5.1322 4.1856 5.6507.8357.2345 1.7006.3291 2.5637.2803" stroke="#000" stroke-width="2"/><path d="m23.6623 2.3963c-.7372-.09058-2.126 1.1565-3.1232 2.85904" stroke="#000" stroke-width="2"/><path d="m25.734 5.08541c-.6366-1.45551-1.4914-2.56242-2.0758-2.68911" stroke="#000" stroke-width="2"/><path d="m17.4948 7.24127c-2.3997.17186-7.2372 8.83163-5.1203 14.54083.8822 2.3794 2.5289 4.4409 4.9287 4.269" stroke="#000" stroke-width="2"/><path d="m19.6777 8.66732c-.6146-.7513-1.4504-1.25896-2.3711-1.44033" stroke="#000" stroke-width="2"/></g></g></svg>

<svg width="72" height="72" viewBox="0 0 72 72" fill="none" xmlns="http://www.w3.org/2000/svg">
<g clip-path="url(#clip0_2712_6627)">
<path d="M37.2705 70.4048C34.7411 56.7164 30.6465 43.4085 25.0781 30.7778" stroke="black" stroke-width="2" stroke-linecap="round" stroke-linejoin="round"/>
<path d="M35.6391 29.634C35.6391 29.634 40.0851 54.1183 33.5078 67.0872" stroke="black" stroke-width="2" stroke-linecap="round" stroke-linejoin="round"/>
<path d="M47.4084 29.634C47.4084 29.634 41.7297 55.6057 31.8809 69.5589" stroke="black" stroke-width="2" stroke-linecap="round" stroke-linejoin="round"/>
<path d="M31.716 57.3713C31.716 57.3713 28.4342 60.7112 38.0187 61.953C44.8571 62.839 42.882 58.7765 42.882 58.7765" stroke="black" stroke-width="2.1049" stroke-linecap="round" stroke-linejoin="round"/>
<path d="M34.598 69.3517C33.4222 69.3507 32.4697 68.3361 32.4707 67.0855C32.471 66.711 32.5586 66.3424 32.7258 66.0127C39.6442 53.0823 33.9699 26.2977 33.9273 26.061C33.7045 24.8331 34.4599 23.6456 35.6144 23.4086C36.769 23.1717 37.8856 23.975 38.1084 25.2031C38.2955 26.2346 43.3336 54.638 36.4745 68.1621C36.1025 68.8956 35.3817 69.3527 34.598 69.3517Z" fill="#5C9E31"/>
<path d="M31.5617 71.8308C32.0408 72.1436 32.6657 72.0116 32.996 71.5276C42.7073 57.002 49.803 26.8241 50.0344 25.7657C50.3008 24.5475 49.5882 23.3303 48.4429 23.0469C47.2975 22.7636 46.153 23.5215 45.8866 24.7396C45.8327 24.9887 39.6526 54.885 29.4185 68.8705C29.0671 69.3709 29.1636 70.0795 29.6341 70.4534C29.6661 70.4787 29.6993 70.5022 29.7336 70.5235L31.5617 71.8308Z" fill="#B1CC33"/>
<path d="M39.4022 71.0945C39.9514 70.9796 40.309 70.4128 40.201 69.8287C40.1993 69.8196 40.1975 69.8104 40.1956 69.8013C39.1369 64.8025 34.2572 43.5152 25.9097 24.3874C25.4113 23.2511 24.1412 22.7598 23.0728 23.29C22.9665 23.3427 22.8645 23.4048 22.7677 23.4753C21.9101 24.1492 21.626 25.3773 22.0915 26.3975C25.6548 34.6591 27.8699 39.0981 30.8029 47.9606C33.8135 57.0575 35.299 66.3051 36.2679 70.708C36.3955 71.2775 36.9259 71.6357 37.4648 71.516L39.4022 71.0945Z" fill="#B1CC33"/>
<path d="M42.1909 25.8619C42.1909 25.8619 48.6178 30.297 53.0277 24.2759C57.4376 18.2549 49.8487 9.54495 49.8487 9.54495C49.8487 9.54495 44.958 4.2666 42.1211 7.11873C42.1211 7.11873 47.9095 17.6 45.2429 22.1115C42.5779 26.6198 42.1909 25.8619 42.1909 25.8619Z" fill="#B399C8"/>
<path d="M50.9242 25.735C53.334 27.8218 56.8783 27.4358 58.8404 24.8727C58.9728 24.6998 59.0959 24.5193 59.2093 24.3319C63.0188 19.056 59.5606 11.8859 59.5606 11.8859C59.5606 11.8859 57.7199 7.07957 55.0072 6.35137C52.2945 5.62316 49.4805 10.7146 49.4805 10.7146C49.4805 10.7146 56.4602 18.9728 50.9242 25.735Z" fill="#B399C8"/>
<path d="M50.0667 9.7764C50.0667 9.7764 47.3576 6.80867 44.7441 6.32648C45.1685 4.46691 46.1212 2.79154 47.4728 1.52839C48.2579 1.19055 49.1495 1.28973 49.852 1.79297C50.8358 2.63564 51.7024 3.62243 52.4256 4.72391L53.2282 6.54193C51.9531 7.34508 50.8708 8.45234 50.0667 9.7764Z" fill="#8967AA"/>
<path d="M26.756 22.111C24.0893 17.5996 29.8778 7.1183 29.8778 7.1183C27.0408 4.26617 22.1501 9.54452 22.1501 9.54452C22.1501 9.54452 14.5615 18.2545 18.9711 24.2755C23.3808 30.2966 29.8079 25.8614 29.8079 25.8614C29.8079 25.8614 29.4213 26.6199 26.756 22.111Z" fill="#FFA7C0"/>
<path d="M22.5162 10.7146C22.5162 10.7146 19.7022 5.62316 16.9895 6.35137C14.2768 7.07957 12.4359 11.8859 12.4359 11.8859C12.4359 11.8859 8.97792 19.0561 12.7872 24.3319C14.4685 27.1116 17.9502 27.9154 20.5638 26.1273C20.7401 26.0067 20.9099 25.8757 21.0723 25.735C15.5365 18.9728 22.5162 10.7146 22.5162 10.7146Z" fill="#FFA7C0"/>
<path d="M18.7695 6.54193L19.5722 4.72391C20.2954 3.62243 21.1619 2.63564 22.1458 1.79297C22.8482 1.28973 23.7399 1.19055 24.525 1.52839C25.8767 2.79142 26.8295 4.46679 27.2538 6.32648C24.6401 6.80867 21.9313 9.7764 21.9313 9.7764C21.1271 8.45234 20.0447 7.34508 18.7695 6.54193Z" fill="#E67A94"/>
<path d="M35.8721 10.1116C34.1236 11.8302 31.9478 16.3855 31.8578 18.1864C31.704 21.2624 31.8007 21.9594 33.4496 24.9011C33.6394 25.2398 33.8328 25.2086 34.4198 25.6976C35.2207 26.3647 31.4178 27.149 31.4178 27.149C28.9984 27.3307 27.4391 24.542 26.5445 22.1195C24.3981 16.3074 29.2228 6.35986 31.6423 6.17871C31.6423 6.17871 32.9583 6.34718 36.2424 9.6618L35.8721 10.1116Z" fill="#F4AA41"/>
<path d="M40.8926 8.7142C43.0052 9.38716 46.6873 18.4572 43.7023 23.104C42.8152 24.5419 41.354 25.464 39.7423 25.6031C38.7741 25.7386 37.7904 25.6707 36.8468 25.403C34.6872 24.9275 33.2381 22.5542 33.0087 20.2214C32.4581 14.6244 38.7331 8.23869 40.8926 8.7142Z" fill="#F4AA41"/>
<path d="M33.8164 6.24416C34.9625 4.28756 36.5585 2.85481 37.4057 2.9584Z" fill="#E27022"/>
<path d="M35.9 10.7787C35.9 10.7787 32.5138 7.7187 32.2954 7.61941C32.0292 7.49782 33.01 3.81536 36.2493 1.72822C39.4886 -0.358916 41.7679 7.59677 41.7679 7.59677L40.1651 7.84007C39.9064 7.87845 39.6592 7.97785 39.4412 8.13092C38.4595 8.82109 35.9 10.7787 35.9 10.7787Z" fill="#E27022"/>
<path d="M37.2705 70.4048C34.7411 56.7164 30.6465 43.4085 25.0781 30.7778" stroke="black" stroke-width="2" stroke-linecap="round" stroke-linejoin="round"/>
<path d="M35.6371 29.634C35.6371 29.634 40.0832 54.1183 33.5059 67.0872" stroke="black" stroke-width="2" stroke-linecap="round" stroke-linejoin="round"/>
<path d="M45.8117 29.634C44.8504 33.2016 37.6169 61.4324 31.8809 69.559" stroke="black" stroke-width="2" stroke-linecap="round" stroke-linejoin="round"/>
<path d="M31.716 57.3713C31.716 57.3713 28.4342 60.7112 38.0187 61.953C44.8571 62.839 42.882 58.7765 42.882 58.7765" stroke="#FCEA2B" stroke-width="2.1049" stroke-linecap="round" stroke-linejoin="round"/>
<path d="M40.9592 7.79977C43.2631 8.53364 47.2785 18.4249 44.0233 23.4922C43.0559 25.0603 41.4624 26.0659 39.7047 26.2175C38.6488 26.3654 37.5759 26.2912 36.547 25.9993C34.1919 25.4808 32.6115 22.8926 32.3614 20.3486C31.7609 14.2449 38.604 7.28124 40.9592 7.79977Z" stroke="black" stroke-width="2" stroke-linecap="round" stroke-linejoin="round"/>
<path d="M34.3066 5.25536C35.3039 3.55282 36.6926 2.30619 37.4298 2.39631" stroke="black" stroke-width="2" stroke-linecap="round" stroke-linejoin="round"/>
<path d="M37.4297 2.3963C38.0136 2.52299 38.8684 3.63036 39.505 5.08541" stroke="black" stroke-width="2" stroke-linecap="round" stroke-linejoin="round"/>
<path d="M31.0707 26.051C28.6712 26.2228 27.0245 24.1614 26.142 21.7819C24.0251 16.0728 28.8627 7.41301 31.2624 7.24115" stroke="black" stroke-width="2" stroke-linecap="round" stroke-linejoin="round"/>
<path d="M31.0762 7.22699C31.9969 7.40836 32.8326 7.91602 33.4473 8.66732" stroke="black" stroke-width="2" stroke-linecap="round" stroke-linejoin="round"/>
<path d="M46.6607 26.2797C47.5239 26.3285 48.3888 26.2339 49.2244 25.9994C51.5795 25.4809 53.1598 22.8926 53.41 20.3487C53.9178 15.1872 49.1025 9.41066 46.1797 8.06384" stroke="black" stroke-width="2" stroke-linecap="round" stroke-linejoin="round"/>
<path d="M51.465 5.25536C50.4681 3.55282 49.079 2.30619 48.3418 2.39631" stroke="black" stroke-width="2" stroke-linecap="round" stroke-linejoin="round"/>
<path d="M48.3414 2.3963C47.7575 2.52299 46.9027 3.63036 46.2656 5.08541" stroke="black" stroke-width="2" stroke-linecap="round" stroke-linejoin="round"/>
<path d="M54.6994 26.051C57.099 26.2228 58.7457 24.1614 59.6281 21.7819C61.745 16.0728 56.9074 7.41301 54.5078 7.24115" stroke="black" stroke-width="2" stroke-linecap="round" stroke-linejoin="round"/>
<path d="M54.6953 7.22699C53.7746 7.40836 52.9389 7.91602 52.3242 8.66732" stroke="black" stroke-width="2" stroke-linecap="round" stroke-linejoin="round"/>
<path d="M25.8221 8.06384C22.8993 9.41111 18.0841 15.1872 18.5918 20.3487C18.842 22.8926 20.4228 25.4809 22.7774 25.9994C23.6131 26.2339 24.478 26.3285 25.3411 26.2797" stroke="black" stroke-width="2" stroke-linecap="round" stroke-linejoin="round"/>
<path d="M23.6623 2.3963C22.9251 2.30572 21.5363 3.5528 20.5391 5.25534" stroke="black" stroke-width="2" stroke-linecap="round" stroke-linejoin="round"/>
<path d="M25.734 5.08541C25.0974 3.6299 24.2426 2.52299 23.6582 2.3963" stroke="black" stroke-width="2" stroke-linecap="round" stroke-linejoin="round"/>
<path d="M17.4948 7.24127C15.0951 7.41313 10.2576 16.0729 12.3745 21.7821C13.2567 24.1615 14.9034 26.223 17.3032 26.0511" stroke="black" stroke-width="2" stroke-linecap="round" stroke-linejoin="round"/>
<path d="M19.6777 8.66732C19.0631 7.91602 18.2273 7.40836 17.3066 7.22699" stroke="black" stroke-width="2" stroke-linecap="round" stroke-linejoin="round"/>
</g>
<defs>
<clipPath id="clip0_2712_6627">
<rect width="72" height="72" fill="white"/>
</clipPath>
</defs>
</svg>
